!!!COM: Joplin, Scott
!!!CDT: 1868/11/24/-1917/04/01/
!!!OTL: The Chrysanthemum
!!!ONB: An Afro-American Intermezzo
!!!ODT: 1904///
!!!PPR: John Stark & Son
!!!PPP: St. Louis, Missouri
!!!PDT: 1904///
!!!ENC: Craig Stuart Sapp
!!!END: 2004/07/06/
!!!YEC: Copyright 2004 by Craig Stuart Sapp
!!!YEN: United States of America
**kern	**kern	**dynam
*staff2	*staff1	*staff1/2
*Ipiano	*Ipiano	*Ipiano
*>[I,A,A1,A,A2,B,B1,B,B2,C,D,D1,D,D2,E,E1,E,E2,F]	*>[I,A,A1,A,A2,B,B1,B,B2,C,D,D1,D,D2,E,E1,E,E2,F]	*>[I,A,A1,A,A2,B,B1,B,B2,C,D,D1,D,D2,E,E1,E,E2,F]
*>norep[I,A,A2,B,B2,C,D,D2,E,E2,F]	*>norep[I,A,A2,B,B2,C,D,D2,E,E2,F]	*>norep[I,A,A2,B,B2,C,D,D2,E,E2,F]
*>I	*>I	*>I
=1-	=1-	=1-
*clefF4	*clefG2	*clefG2
*k[b-e-]	*k[b-e-]	*k[b-e-]
*B-:	*B-:	*B-:
*M2/4	*M2/4	*M2/4
*MM90	*MM90	*MM90
*	*^	*
2r	(16ffLL	16fLL	.
.	16een	16en	.
.	16ee-	16e-	.
.	16ddJJ	16dJJ	.
.	4cc)	&(4c&)	.
*	*v	*v	*
=2	=2	=2
(16E-LL	(16e-LL	.
16D	16d	.
16C	16c	.
16C-JJ	16c-JJ	.
4BB-)	4B-)	.
=3	=3	=3
8EE- 8E-L	(16gLL	.
.	16f#	.
8G 8c 8e-J	16g	.
.	16ee-JJ)	.
8FF 8FL	16ddLL	.
.	16fnJ	.
8F 8A 8e-J	8ccJ	.
=4	=4	=4
8BB-L	8b-	.
8F 8B- 8dJ	8r	.
8FFL	8r	.
8F 8B- 8dJ	8dd	.
=5!|:	=5!|:	=5!|:
*>A	*>A	*>A
8C 8cL	16ee-LL	mf
.	16ff	.
8F 8A 8e-J	16gg	.
.	16aJJ	.
8FFL	16ccLL	.
.	16dd	.
8F 8A 8e-J	16ee-	.
.	16gJJ	.
=6	=6	=6
8BB-L	16b-LL	.
.	16cc	.
8F 8B- 8dJ	16dd	.
.	[16fJJ	.
8FFL	16fLL]	.
.	16b-J	.
8F 8B- 8dJ	8fJ	.
=7	=7	=7
8AAL	(16fLL	.
.	16f#	.
8F 8A 8e-J	16g)	.
.	16ee-JJ	.
8FFL	(16gLL	.
.	16g#	.
8F 8c 8e-J	16a)	.
.	16ee-JJ	.
=8	=8	=8
8BB-L	16ddLL	.
.	16b-	.
8F 8B- 8dJ	16dd	.
.	[16ffJJ	.
8D 8dL	8ffL]	.
8BBn 8BnJ	8ddJ	.
=9	=9	=9
8C 8cL	16ee-LL	.
.	16ff	.
8F 8A 8e-J	16gg	.
.	16aJJ	.
8FFL	16ccLL	.
.	16dd	.
8F 8A 8e-J	16ee-	.
.	16gJJ	.
=10	=10	=10
8BB-L	16b-LL	.
.	16cc	.
8F 8B- 8dJ	16dd	.
.	[16fJJ	.
8BBnL	16fLL]	.
.	(16en	.
8F 8G# 8dJ	16f	.
.	16gJJ)	.
=11	=11	=11
8CL	(16aLL	.
.	16b-	.
8F 8A 8cJ	16bn	.
.	16ccJJ	.
8CL	16ddLL)	.
.	16cc	.
8B- 8c 8enJ	16b-	.
.	16ggJJ	.
=12	=12	=12
*^	*	*
[4A [4c [4f	8FL	[4ff	f
.	(BB-q	.	.
.	8CJ)	.	.
8A] 8c] 8f]	8FF	8ff]	.
8r	8r	8dd	.
*v	*v	*	*
=13	=13	=13
8CL	16ee-LL	mf
.	16ff	.
8F 8A 8e-J	16gg	.
.	16aJJ	.
8FFL	16ccLL	.
.	16dd	.
8F 8A 8e-J	16ee-	.
.	16gJJ	.
=14	=14	=14
8BB-L	16b-LL	.
.	16cc	.
8F 8B- 8dJ	16dd	.
.	[16fJJ	.
8FFL	16fLL]	.
.	16b-J	.
8F 8B- 8dJ	8fJ	.
=15	=15	=15
8AAL	(16fLL	.
.	16f#	.
8F 8A 8e-J	16g)	.
.	16ee-JJ	.
8FFL	(16gLL	.
.	16g#	.
8F 8c 8e-J	16a	.
.	16ee-JJ)	.
=16	=16	=16
8BB-L	16ddLL	.
.	16b-	.
8F 8B- 8dJ	16dd	.
.	[16ffJJ	.
8DL	4ff]	.
8F 8B- 8dJ	.	.
=17	=17	=17
*^	*	*
8GL	4G	16ddLL	.
.	.	16ee-	.
8Bn 8dJ	.	16ff	.
.	.	16gJJ	.
8FL	4F	16bnLL	.
.	.	16cc	.
8G 8B 8dJ	.	16dd	.
.	.	16gJJ	.
=18	=18	=18	=18
8E-L	4E-	(16ccLL	.
.	.	16bn	.
8G 8cJ	.	16cc	.
.	.	16ddJJ)	.
*v	*v	*	*
8GG 8GL	8cc 8ee-L	.
8GG- 8G-J	8b- 8cc# 8eenJ	.
=19	=19	=19
*	*^	*
8FF 8FL	16ffLL	4b- 4dd	.
.	16bb-	.	.
8F 8B- 8dJ	16ff	.	.
.	16ddJJ	.	.
*	*v	*v	*
8FF 8FL	16ccLL	.
.	16f	.
8F 8A 8c 8e-J	16a	.
.	16ffJJ	.
=20	=20	=20
*>A1	*>A1	*>A1
8BB-L	[4b-	.
8F 8B- 8dJ	.	.
8D 8dL	8b-]	.
8BBn 8BnJ	8dd	.
=21:|!	=21:|!	=21:|!
*>A2	*>A2	*>A2
*^	*	*
8B-L	4d	4b-	.
8FJ	.	.	.
4ryy	8BB-	8b- 8dd 8ff 8bb-	.
.	8r	8r	.
*v	*v	*	*
=22	=22	=22
*>B	*>B	*>B
*k[b-]	*k[b-]	*k[b-]
8FF 8FL	8a 8ff 8aa	f
8A 8c 8fJ	4.cc 4.aa 4.ccc	.
8CL	.	.
8A 8c 8fJ	.	.
=23	=23	=23
8BB-L	8dd 8bb- 8ddd	.
8B- 8d 8fJ	4ff 4ddd 4fff	.
8D 8dL	.	.
8BB- 8B-J	16fffLL	.
.	16dddJJ	.
=24	=24	=24
8AA 8AL	8cccL	.
8A 8c 8fJ	16aaL	.
.	[16bb-JJ	.
8GG 8GL	16bb-LL]	.
.	16cccJ	.
8CC 8CJ	8ee 8ggJ	.
=25	=25	=25
8FF 8FL	16ffLL	.
.	16ee	.
8A 8fJ	16ff	.
.	[16aaJJ	.
8CL	4aa]	.
8A 8c 8fJ	.	.
=26	=26	=26
8FF 8FL	8a 8ff 8aa	.
8A 8c 8fJ	4.cc 4.aa 4.ccc	.
8CL	.	.
8A 8c 8fJ	.	.
=27	=27	=27
*^	*	*
8BB-L	4BB-	8dd 8bb- 8ddd	.
8B- 8d 8fJ	.	4ff 4ddd 4fff	.
8DL	4D	.	.
8A 8dJ	.	8ff 8ddd 8fff	.
=28	=28	=28	=28
8EL	4E	8ee 8eeeL	.
8A 8cJ	.	16dd# 16ddd#L	.
.	.	[16ee [16eeeJJ	.
8EL	4E	16ee] 16eeeLL]	.
.	.	16ff 16fffJ	.
8G# 8Bn 8dJ	.	8ee 8eeeJ	.
*v	*v	*	*
=29	=29	=29
4A 4c	4ee 4aa 4ccc 4eee	.
*	*^	*
4CC 4C	(8dddL	4ee 4bb-	.
.	8cccJ)	.	.
*	*v	*v	*
=30	=30	=30
8FF 8FL	8a 8ff 8aa	.
8A 8c 8fJ	4.cc 4.aa 4.ccc	.
8CL	.	.
8A 8c 8fJ	.	.
=31	=31	=31
8BB-L	8dd 8bb- 8dddL	.
8B- 8d 8fJ	[8ff [8ddd [8fffJ	.
8DL	16ff] 16ddd] 16fffLL]	.
.	(16ddd	.
8B- 8d 8fJ	16bb-	.
.	16ffJJ)	.
=32	=32	=32
*^	*	*
8FL	4F	16aaLL	.
.	.	16gg#	.
8A 8cJ	.	16aa	.
.	.	16cccJJ	.
8F#L	4F#	16dddLL	.
.	.	16eee-	.
8A 8c 8dJ	.	16ddd	.
.	.	16cccJJ	.
=33	=33	=33	=33
8GL	4.G	4.bb-	.
8B- 8d	.	.	.
8B- 8dJ	.	.	.
*v	*v	*	*
8r	16ddLL	.
.	16eeJJ	.
=34	=34	=34
*^	*	*
8BB-L	4BB-	16ffLL	.
.	.	16gg	.
8B- 8d 8fJ	.	16ff	.
.	.	16eeJJ	.
8BBnL	4BBn	8ffL	.
8G# 8d 8fJ	.	8ddJ	.
=35	=35	=35	=35
8CL	4C	8cc	.
8A 8c 8fJ	.	4cc 4aa	.
8DL	4D	.	.
8A 8c 8f#J	.	16bb-LL	.
.	.	16aaJJ	.
*v	*v	*	*
=36	=36	=36
*	*^	*
8GG 8GL	(16ffLL	4bn	.
.	16dd	.	.
8G 8Bn 8fnJ	16ee	.	.
.	16ffJJ)	.	.
*	*v	*v	*
8CL	8b- 8ggL	.
8B- 8c 8eJ	8b- 8ee 8aaJ	.
=37	=37	=37
*>B1	*>B1	*>B1
8F 8A 8c 8f	8a 8ffL	.
8r	(16bnL	.
.	16ccJJ	.
4r	16ddLL	.
.	16ee	.
.	16ff	.
.	16ggJJ)	.
=38:|!	=38:|!	=38:|!
*>B2	*>B2	*>B2
*^	*	*
4.A 4.c 4.f	8FL	4a 4ff	.
.	8C	.	.
.	8FFJ	8a 8ff	.
*v	*v	*	*
8r	8dd	.
=39	=39	=39
*>C	*>C	*>C
*k[b-e-]	*k[b-e-]	*k[b-e-]
8CL	16ee-LL	mf
.	16ff	.
8F 8A 8e-J	16gg	.
.	16aJJ	.
8FFL	16ccLL	.
.	16dd	.
8F 8A 8e-J	16ee-	.
.	16gJJ	.
=40	=40	=40
8BB-L	16b-LL	.
.	16cc	.
8F 8B- 8dJ	16dd	.
.	[16fJJ	.
8FFL	16fLL]	.
.	16b-J	.
8F 8B- 8dJ	8fJ	.
=41	=41	=41
8AAL	(16fLL	.
.	16f#	.
8F 8A 8e-J	16g	.
.	16ee-JJ)	.
8FFL	(16gLL	.
.	16g#	.
8F 8c 8e-J	16a	.
.	16ee-JJ)	.
=42	=42	=42
8BB-L	16ddLL	.
.	16b-	.
8F 8B- 8dJ	16dd	.
.	[16ffJJ	.
8D 8dL	8ffL]	.
8BBn 8BnJ	8ddJ	.
=43	=43	=43
8C 8cL	16ee-LL	.
.	16ff	.
8F 8A 8e-J	16gg	.
.	16aJJ	.
8FFL	16ccLL	.
.	16dd	.
8F 8A 8e-J	16ee-	.
.	16gJJ	.
=44	=44	=44
8BB-L	16b-LL	.
.	16cc	.
8F 8B- 8dJ	16dd	.
.	[16fJJ	.
8BBnL	16fLL]	.
.	(16en	.
8F 8G# 8dJ	16f	.
.	16gJJ)	.
=45	=45	=45
8CL	(16aLL	.
.	16b-	.
8F 8A 8cJ	16bn	.
.	16ccJJ)	.
8CL	16ddLL	.
.	16cc	.
8B- 8c 8e-J	16b-	.
.	16ggJJ	.
=46	=46	=46
*^	*	*
[4A [4c [4f	8FL	[4ff	f
.	(BBnq	.	.
.	8CJ)	.	.
8A] 8c] 8f]	8FF	8ff]	.
8r	8r	8dd	.
*v	*v	*	*
=47	=47	=47
8CL	16ee-LL	mf
.	16ff	.
8F 8A 8e-J	16gg	.
.	16aJJ	.
8FFL	16ccLL	.
.	16dd	.
8F 8A 8e-J	16ee-	.
.	16gJJ	.
=48	=48	=48
8BB-L	16b-LL	.
.	16cc	.
8F 8B- 8dJ	16dd	.
.	[16fJJ	.
8FFL	16fLL]	.
.	16b-J	.
8F 8B- 8dJ	8fJ	.
=49	=49	=49
8AAL	(16fLL	.
.	16f#	.
8F 8A 8e-J	16g	.
.	16ee-JJ)	.
8FFL	(16gLL	.
.	16g#	.
8F 8c 8e-J	16a	.
.	16ee-JJ)	.
=50	=50	=50
8BB-L	16ddLL	.
.	16b-	.
8F 8B- 8dJ	16dd	.
.	[16ffJJ	.
8DL	4ff]	.
8F 8B- 8dJ	.	.
=51	=51	=51
*^	*	*
8GL	4G	16ddLL	.
.	.	16ee-	.
8Bn 8dJ	.	16ff	.
.	.	16gJJ	.
8FL	4F	16bnLL	.
.	.	16cc	.
8G 8B 8dJ	.	16dd	.
.	.	16gJJ	.
=52	=52	=52	=52
8E-L	4E-	(16ccLL	.
.	.	16bn	.
8G 8cJ	.	16cc	.
.	.	16ddJJ)	.
*v	*v	*	*
8GG 8GL	8cc 8ee-L	.
8GG- 8G-J	8b- 8cc# 8eenJ	.
=53	=53	=53
*	*^	*
8FF 8FL	16ffLL	4b- 4dd	f
.	16bb-	.	.
8F 8B- 8dJ	16ff	.	.
.	16ddJJ	.	.
*	*v	*v	*
8FF 8FL	16ccLL	.
.	16f	.
8F 8A 8c 8e-J	16a	.
.	16ffJJ	.
=54	=54	=54
8B- 8dL	4b-	.
8FJ	.	.
8BB-	8b- 8dd 8ff 8bb-	.
8r	8r	.
=55!|:	=55!|:	=55!|:
*>D	*>D	*>D
*k[b-e-a-]	*k[b-e-a-]	*k[b-e-a-]
(8E-L	(8.g 8.b-L	p
8CJ	.	.
.	16f#) 16anJk	.
8DL	8fn (8a-L	.
8BB-J)	8a- 8dd 8ffJ)	.
=56	=56	=56
8E-L	8.g (8.ee-L	.
8G 8B-J	.	.
.	16e- 16gJk)	.
*	*^	*
8BB-L	(8ccL	4g	.
8G 8B- 8e-J	8b-J)	.	.
=57	=57	=57	=57
8DL	16ffLL	4.a-	.
.	16een	.	.
8B- 8dJ	16ff	.	.
.	16eeJJ	.	.
8BB-L	8ffL	.	.
8B- 8dJ	8aa-J	8cc	.
*	*v	*v	*
=58	=58	=58
*^	*	*
16r	2E-	2b- 2gg	.
(16B-LL	.	.	.
16c	.	.	.
16dJJ	.	.	.
16e-LL	.	.	.
16d	.	.	.
16c	.	.	.
16B-JJ)	.	.	.
*v	*v	*	*
=59	=59	=59
(8E-L	(8.g 8.b-L	.
8CJ	.	.
.	16f#) 16anJk	.
8DL	8fn (8a-L	.
8BB-J)	8a- 8dd 8ffJ)	.
=60	=60	=60
8E-L	8.g (8.ee-L	.
8G 8B-J	.	.
.	16e- 16gJk)	.
8E-L	8g 8ccL	.
8EnJ	8g- 8cc#J	.
=61	=61	=61
*	*^	*
8FL	(16ddLL	4f	.
.	16cc#	.	.
8B- 8dJ	16dd	.	.
.	16ffJJ)	.	.
*	*v	*v	*
8GG 8GL	8en 8b-L	.
8FF 8FJ	8e- 8an 8ccnJ	.
=62	=62	=62
8BB- 8B-L	4.d 4.b-	.
(Enq	.	.
8F)	.	.
8BB-J	.	.
8r	8b-	.
=63	=63	=63
(8E-L	(8.g 8.b-L	p
8CJ	.	.
.	16f#) 16anJk	.
8DL	8fn (8a-L	.
8BB-J)	8a- 8dd 8ffJ)	.
=64	=64	=64
8E-L	8.g (8.ee-L	.
8G 8B-J	.	.
.	16e- 16gJk)	.
*	*^	*
8BB-L	(8ccL	4g	.
8G 8B- 8e-J	8b-J)	.	.
=65	=65	=65	=65
8DL	16ffLL	4.a-	.
.	16een	.	.
8dJ	16ff	.	.
.	16eeJJ	.	.
8BB- 8B-L	8ffL	.	.
8AA- 8A-J	8ff#J	8cc 8dd	.
*	*v	*v	*
=66	=66	=66
8GG 8GL	4.bn 4.dd 4.gg	.
(C#q	.	.
8D)	.	.
8GGJ	.	.
8r	8gg	.
=67	=67	=67
*	*^	*
8AA-L	(8.ggL	4cc	.
8A- 8cJ	.	.	.
.	16ffJk)	.	.
8AAnL	(8dddL	4ee- 4ff#	.
8F# 8c 8e-J	8cccJ)	.	.
=68	=68	=68	=68
8BB-L	(8cccL	4ee- 4gg	mf
8G 8B- 8e-J	[8bb-J)	.	.
8E-L	16bb-LL]	4r	.
.	16gg	.	.
8G 8e-J	16ee-	.	.
.	16b-JJ	.	.
*	*v	*v	*
=69	=69	=69
*^	*	*
8DL	4D	(16ccLL	.
.	.	16cc#	.
8A- 8B-J	.	16dd	.
.	.	16ffJJ)	.
8BB-L	4BB-	(16ddLL	.
.	.	16ee-	.
8A- 8B- 8dJ	.	16ff	.
.	.	16bb-JJ)	.
=70	=70	=70	=70
*v	*v	*	*
*>D1	*>D1	*>D1
*^	*	*
[4G [4B- [4e-	8E-L	[4ee-	.
.	8BB-J	.	.
8G] 8B-] 8e-]	8CL	8ee-]	.
8r	8DJ	8a- 8b-	.
=71:|!	=71:|!	=71:|!	=71:|!
*v	*v	*	*
*>D2	*>D2	*>D2
*^	*	*
4G [4B- [4e-	(8E-L	4ee-	.
.	AAnq	.	.
.	&(8BB-J&)	.	.
8G) 8B-] 8e-]	8EE-	8ee- 8gg 8eee-	.
8r	8r	8r	.
*v	*v	*	*
=72!|:	=72!|:	=72!|:
*>E	*>E	*>E
8CL	16ccLL	mf
.	16ee-	.
8G 8c 8e-J	16dd	.
.	[16ee-JJ	.
8CL	16ee-LL]	.
.	16ff#	.
8G 8c 8e-J	16gg	.
.	16cccJJ	.
=73	=73	=73
*^	*	*
8r	2GG	8bbnL	.
8G 8Bn 8fL	.	16ggL	.
.	.	16ffJJ	.
8G 8B 8f	.	16ee-LK	.
.	.	8dd	.
8G 8B 8fJ	.	.	.
.	.	16bnJk	.
*v	*v	*	*
=74	=74	=74
8CL	16ccLL	.
.	16ee-	.
8G 8c 8e-J	16dd	.
.	[16ee-JJ	.
8CL	16ee-LL]	.
.	16ff#	.
8G 8c 8e-J	16gg	.
.	16cccJJ	.
=75	=75	=75
*^	*	*
8r	2GG	8bbnL	.
8G 8Bn 8fL	.	16ggL	.
.	.	16ffJJ	.
8G 8B 8f	.	16ee-LK	.
.	.	8dd	.
8G 8B 8fJ	.	.	.
.	.	16bnJk	.
=76	=76	=76	=76
*	*	*^	*
8FFL	4.FF	(16ccLL	4.a-	f
.	.	16bn	.	.
8A- 8c 8d 8fJ	.	16cc	.	.
.	.	16bJJ	.	.
8A- 8c 8d 8fL	.	8ccL	.	.
*v	*v	*	*	*
8FF 8FJ	8f 8a-J)	8c 8d	.
=77	=77	=77	=77
4.GG 4.G	8gL	4.Bn 4.d 4.f	.
.	16ggL	.	.
.	16ff#JJ	.	.
.	8ggL	.	.
8GG 8G	8ggJ	8g 8bn 8dd	.
=78	=78	=78	=78
8AA- 8A-L	(16ccLL	8fL	.
.	16bn	.	.
8A- 8c 8dJ	16cc	8fJ	.
.	16bJJ	.	.
8A- 8c 8dL	8ccL)	8fL	.
8FF 8FJ	8a-J	8c 8d 8fJ	.
*	*v	*v	*
=79	=79	=79
8GG 8G	8Bn 8d 8f 8g	.
8r	8r	.
8GGG 8GG	8g 8bn 8dd 8gg	.
8r	8r	.
=80	=80	=80
8CL	16ccLL	.
.	16ee-	.
8G 8c 8e-J	16dd	.
.	[16ee-JJ	.
8CL	16ee-LL]	.
.	16ff#	.
8G 8c 8e-J	16gg	.
.	16cccJJ	.
=81	=81	=81
*^	*	*
8r	2GG	8bbnL	.
8G 8Bn 8fL	.	16ggL	.
.	.	16ffJJ	.
8G 8B 8f	.	16ee-LK	.
.	.	8dd	.
8G 8B 8fJ	.	.	.
.	.	16bnJk	.
*v	*v	*	*
=82	=82	=82
8CL	16ccLL	.
.	16ee-	.
8G 8c 8e-J	16dd	.
.	[16ee-JJ	.
8CL	16ee-LL]	.
.	16ff#	.
8G 8c 8e-J	16gg	.
.	16cccJJ	.
=83	=83	=83
*^	*	*
8r	2GG	8bbnL	.
8G 8Bn 8fL	.	16ggL	.
.	.	16ffJJ	.
8G 8B 8f	.	16ee-LK	.
.	.	8dd	.
8G 8B 8fJ	.	.	.
.	.	16bnJk	.
*v	*v	*	*
=84	=84	=84
8CL	16ccLL	.
.	16gg	.
8G 8c 8e-J	16ff#	.
.	16ggJJ	.
8CL	16cccLL	.
.	16gg	.
8G 8c 8e-J	16ff#	.
.	16ggJJ	.
=85	=85	=85
*^	*	*
8FFL	4.FF	4.aa-	.
8A- 8c 8f	.	.	.
8A- 8c 8fJ	.	.	.
*v	*v	*	*
8r	8aa-	.
=86	=86	=86
8GGL	16ggLL	.
.	16aa-	.
8G 8Bn 8fJ	16gg	.
.	16ffJJ	.
8GGL	16ddLL	.
.	16ff	.
8G 8B 8fJ	16ee-	.
.	16ddJJ	.
=87	=87	=87
*>E1	*>E1	*>E1
4c 4e-	4cc	.
4GG 4G	4g 4bn 4dd 4gg	.
=88:|!	=88:|!	=88:|!
*>E2	*>E2	*>E2
4c 4e-	4cc	.
4D	4f 4a- 4b-	.
=89	=89	=89
*>F	*>F	*>F
(8E-L	(8.g 8.b-L	p
8CJ	.	.
.	16f#) 16anJk	.
8DL	8fn (8a-L	.
8BB-J)	8a- 8dd 8ffJ)	.
=90	=90	=90
8E-L	8.g (8.ee-L	.
8G 8B-J	.	.
.	16e- 16gJk)	.
*	*^	*
8BB-L	(8ccL	4g	.
8G 8B- 8e-J	8b-J)	.	.
=91	=91	=91	=91
8DL	16ffLL	4.a-	.
.	16een	.	.
8B- 8dJ	16ff	.	.
.	16eeJJ	.	.
8BB-L	8ffL	.	.
8B- 8dJ	8aa-J	8cc	.
*	*v	*v	*
=92	=92	=92
*^	*	*
16r	2E-	2b- 2gg	.
(16B-LL	.	.	.
16c	.	.	.
16dJJ	.	.	.
16e-LL	.	.	.
16d	.	.	.
16c	.	.	.
16B-JJ)	.	.	.
*v	*v	*	*
=93	=93	=93
(8E-L	(8.g 8.b-L	.
8CJ	.	.
.	16f#) 16anJk	.
8DL	8fn (8a-L	.
8BB-J)	8a- 8dd 8ffJ)	.
=94	=94	=94
8E-L	8.g (8.ee-L	.
8G 8B-J	.	.
.	16e- 16gJk)	.
8E-L	8g 8ccL	.
8EnJ	8g- 8cc#J	.
=95	=95	=95
*	*^	*
8FL	(16ddLL	4f	.
.	16cc#	.	.
8B- 8dJ	16dd	.	.
.	16ffJJ)	.	.
*	*v	*v	*
8GG 8GL	8en 8b-L	.
8FF 8FJ	8e- 8an 8ccnJ	.
=96	=96	=96
8BB- 8B-L	4.d 4.b-	.
(Enq	.	.
8F)	.	.
8BB-J	.	.
8r	8b-	.
=97	=97	=97
(8E-L	(8.g 8.b-L	p
8CJ	.	.
.	16f#) 16anJk	.
8DL	8fn (8a-L	.
8BB-J)	8a- 8dd 8ffJ)	.
=98	=98	=98
8E-L	8.g (8.ee-L	.
8G 8B-J	.	.
.	16e- 16gJk)	.
*	*^	*
8BB-L	8ccL	4g	.
8G 8B- 8e-J	8b-J	.	.
=99	=99	=99	=99
8DL	16ffLL	4.a-	.
.	16een	.	.
8B- 8dJ	16ff	.	.
.	16eeJJ	.	.
8BB- 8B-L	8ffL	.	.
8AA- 8A-J	8ff#J	8cc 8dd	.
*	*v	*v	*
=100	=100	=100
8GG 8GL	4.bn 4.dd 4.gg	.
(C#q	.	.
8D)	.	.
8GGJ	.	.
8r	8gg	.
=101	=101	=101
*	*^	*
8AA-L	(8.ggL	4cc	.
8A- 8cJ	.	.	.
.	16ffJk)	.	.
8AAnL	8dddL	4ff#	.
8F# 8c 8e-J	8cccJ	.	.
=102	=102	=102	=102
8BB-L	(8cccL	4ee- 4gg	mf
8G 8B- 8e-J	[8bb-J	.	.
8E-L	16bb-LL])	4r	.
.	(16gg	.	.
8G 8B- 8e-J	16ee-	.	.
.	16b-JJ)	.	.
*	*v	*v	*
=103	=103	=103
8DL	(16ccLL	.
.	16cc#	.
8A- 8B-J	16dd	.
.	16ffJJ)	.
8BB-L	(16ddLL	.
.	16ee-	.
8A- 8B- 8dJ	16ff	.
.	16bb-JJ)	.
=104	=104	=104
*^	*	*
[4G [4B- [4e-	8E-L	4ee-	.
.	(AAnq	.	.
.	8BB-J)	.	.
8G] 8B-] 8e-]	8EE-	8ee- 8gg 8eee-	.
8r	8r	8r	.
*v	*v	*	*
==	==	==
*-	*-	*-
